src/UI/img/credit-card-jcb.svg

<svg fill="none" height="32" viewBox="0 0 32 32" width="32" xmlns="http://www.w3.org/2000/svg" xmlns:xlink="http://www.w3.org/1999/xlink"><linearGradient id="a"><stop offset="0" stop-color="#007940"/><stop offset=".2285" stop-color="#00873f"/><stop offset=".7433" stop-color="#40a737"/><stop offset="1" stop-color="#5cb531"/></linearGradient><linearGradient id="b" gradientUnits="userSpaceOnUse" x1="19.0821" x2="24.0148" xlink:href="#a" y1="16.651" y2="16.651"/><linearGradient id="c" gradientUnits="userSpaceOnUse" x1="19.0822" x2="24.0148" xlink:href="#a" y1="15.8822" y2="15.8822"/><linearGradient id="d" gradientUnits="userSpaceOnUse" x1="19.082" x2="24.0144" xlink:href="#a" y1="15.0458" y2="15.0458"/><linearGradient id="e" gradientUnits="userSpaceOnUse" x1="8.04022" x2="13.0488" y1="15.8822" y2="15.8822"><stop offset="0" stop-color="#1f286f"/><stop offset=".4751" stop-color="#004e94"/><stop offset=".8261" stop-color="#0066b1"/><stop offset="1" stop-color="#006fbc"/></linearGradient><linearGradient id="f" gradientUnits="userSpaceOnUse" x1="13.535" x2="18.3993" y1="15.8822" y2="15.8822"><stop offset="0" stop-color="#6c2c2f"/><stop offset=".1735" stop-color="#882730"/><stop offset=".5731" stop-color="#be1833"/><stop offset=".8585" stop-color="#dc0436"/><stop offset="1" stop-color="#e60039"/></linearGradient><clipPath id="g"><path d="m7 9h18v13.8293h-18z"/></clipPath><path d="m26 4c3.3137 0 6 2.68629 6 6v12c0 3.3137-2.6863 6-6 6h-20c-3.31371 0-5.99999902-2.6863-5.99999888-6l.00000053-12c.00000014-3.31371 2.68628835-6 5.99999835-6z" fill="#008eed"/><path clip-rule="evenodd" d="m30 22v-12c0-2.20914-1.7909-4-4-4h-20c-2.20914 0-4 1.79086-4 4v12c0 2.2091 1.79086 4 4 4h20c2.2091 0 4-1.7909 4-4zm2-12c0-3.31371-2.6863-6-6-6h-20c-3.31371 0-5.99999821 2.68629-5.99999835 6l-.00000053 12c-.00000014 3.3137 2.68628888 6 5.99999888 6h20c3.3137 0 6-2.6863 6-6z" fill="#000" fill-opacity=".18" fill-rule="evenodd"/><g clip-path="url(#g)"><path d="m25 20.0085c0 1.5366-1.2512 2.7878-2.7878 2.7878h-15.16825v-11.0415c0-1.5365 1.25121-2.78776 2.7878-2.78776h15.16825z" fill="#fff"/><path d="m20.061 17.1768h1.1525c.0329 0 .1097-.011.1427-.011.2195-.0439.4061-.2415.4061-.5159 0-.2634-.1866-.4609-.4061-.5158-.033-.011-.0988-.011-.1427-.011h-1.1525z" fill="url(#b)"/><path d="m21.0818 9.89996c-1.0976 0-1.9976.88904-1.9976 1.99754v2.0744h2.8207c.0659 0 .1427 0 .1976.011.6366.0329 1.1085.3622 1.1085.9329 0 .45-.3182.8342-.9109.911v.0219c.6475.0439 1.1414.4061 1.1414.9659 0 .6037-.5487.9988-1.2731.9988h-3.0952v4.061h2.9305c1.0976 0 1.9976-.8891 1.9976-1.9976v-9.97684z" fill="url(#c)"/><path d="m21.6196 15.0475c0-.2634-.1866-.439-.4061-.4719-.022 0-.0769-.011-.1098-.011h-1.0427v.9658h1.0427c.0329 0 .0988 0 .1098-.0109.2195-.033.4061-.2086.4061-.472z" fill="url(#d)"/><path d="m10.0403 9.89996c-1.09759 0-1.99759.88904-1.99759 1.99754v4.9281c.55976.2744 1.14147.45 1.72317.45.69142 0 1.06462-.4171 1.06462-.9878v-2.3269h1.7122v2.3159c0 .9-.5597 1.6354-2.4585 1.6354-1.15246 0-2.05246-.2525-2.05246-.2525v4.2037h2.93046c1.0976 0 1.9976-.889 1.9976-1.9976v-9.96584z" fill="url(#e)"/><path d="m15.561 9.89996c-1.0975 0-1.9975.88904-1.9975 1.99754v2.6122c.5049-.428 1.3829-.7024 2.7988-.6366.7573.033 1.5695.2415 1.5695.2415v.8451c-.4061-.2085-.8891-.3951-1.5147-.439-1.0756-.0768-1.7231.45-1.7231 1.3719 0 .933.6475 1.4598 1.7231 1.372.6256-.0439 1.1086-.2415 1.5147-.439v.8451s-.8013.2085-1.5695.2415c-1.4159.0658-2.2939-.2086-2.7988-.6366v4.6097h2.9305c1.0975 0 1.9975-.889 1.9975-1.9975v-9.98784z" fill="url(#f)"/></g></svg>

<svg width="32" height="32" viewBox="0 0 32 32" fill="none" xmlns="http://www.w3.org/2000/svg">
<path d="M26 4C29.3137 4 32 6.68629 32 10L32 22C32 25.3137 29.3137 28 26 28L6 28C2.68629 28 9.75697e-07 25.3137 1.12054e-06 22L1.64508e-06 10C1.78993e-06 6.68629 2.68629 4 6 4L26 4Z" fill="#008EED"/>
<path fill-rule="evenodd" clip-rule="evenodd" d="M30 22L30 10C30 7.79086 28.2091 6 26 6L6 6C3.79086 6 2 7.79086 2 10L2 22C2 24.2091 3.79086 26 6 26L26 26C28.2091 26 30 24.2091 30 22ZM32 10C32 6.68629 29.3137 4 26 4L6 4C2.68629 4 1.78993e-06 6.68629 1.64508e-06 10L1.12054e-06 22C9.75697e-07 25.3137 2.68629 28 6 28L26 28C29.3137 28 32 25.3137 32 22L32 10Z" fill="black" fill-opacity="0.18"/>
<g clip-path="url(#clip0_8945_845)">
<path d="M25 20.0085C25 21.5451 23.7488 22.7963 22.2122 22.7963H7.04395V11.7548C7.04395 10.2183 8.29516 8.96704 9.83175 8.96704H25V20.0085Z" fill="white"/>
<path d="M20.061 17.1768H21.2135C21.2464 17.1768 21.3232 17.1658 21.3562 17.1658C21.5757 17.1219 21.7623 16.9243 21.7623 16.6499C21.7623 16.3865 21.5757 16.189 21.3562 16.1341C21.3232 16.1231 21.2574 16.1231 21.2135 16.1231H20.061V17.1768Z" fill="url(#paint0_linear_8945_845)"/>
<path d="M21.0818 9.89996C19.9842 9.89996 19.0842 10.789 19.0842 11.8975V13.9719H21.9049C21.9708 13.9719 22.0476 13.9719 22.1025 13.9829C22.7391 14.0158 23.211 14.3451 23.211 14.9158C23.211 15.3658 22.8928 15.75 22.3001 15.8268V15.8487C22.9476 15.8926 23.4415 16.2548 23.4415 16.8146C23.4415 17.4183 22.8928 17.8134 22.1684 17.8134H19.0732V21.8744H22.0037C23.1013 21.8744 24.0013 20.9853 24.0013 19.8768V9.89996H21.0818Z" fill="url(#paint1_linear_8945_845)"/>
<path d="M21.6196 15.0475C21.6196 14.7841 21.433 14.6085 21.2135 14.5756C21.1915 14.5756 21.1366 14.5646 21.1037 14.5646H20.061V15.5304H21.1037C21.1366 15.5304 21.2025 15.5304 21.2135 15.5195C21.433 15.4865 21.6196 15.3109 21.6196 15.0475Z" fill="url(#paint2_linear_8945_845)"/>
<path d="M10.0403 9.89996C8.94271 9.89996 8.04271 10.789 8.04271 11.8975V16.8256C8.60247 17.1 9.18418 17.2756 9.76588 17.2756C10.4573 17.2756 10.8305 16.8585 10.8305 16.2878V13.9609H12.5427V16.2768C12.5427 17.1768 11.983 17.9122 10.0842 17.9122C8.93174 17.9122 8.03174 17.6597 8.03174 17.6597V21.8634H10.9622C12.0598 21.8634 12.9598 20.9744 12.9598 19.8658V9.89996H10.0403Z" fill="url(#paint3_linear_8945_845)"/>
<path d="M15.561 9.89996C14.4635 9.89996 13.5635 10.789 13.5635 11.8975V14.5097C14.0684 14.0817 14.9464 13.8073 16.3623 13.8731C17.1196 13.9061 17.9318 14.1146 17.9318 14.1146V14.9597C17.5257 14.7512 17.0427 14.5646 16.4171 14.5207C15.3415 14.4439 14.694 14.9707 14.694 15.8926C14.694 16.8256 15.3415 17.3524 16.4171 17.2646C17.0427 17.2207 17.5257 17.0231 17.9318 16.8256V17.6707C17.9318 17.6707 17.1305 17.8792 16.3623 17.9122C14.9464 17.978 14.0684 17.7036 13.5635 17.2756V21.8853H16.494C17.5915 21.8853 18.4915 20.9963 18.4915 19.8878V9.89996H15.561Z" fill="url(#paint4_linear_8945_845)"/>
</g>
<defs>
<linearGradient id="paint0_linear_8945_845" x1="19.0821" y1="16.651" x2="24.0148" y2="16.651" gradientUnits="userSpaceOnUse">
<stop stop-color="#007940"/>
<stop offset="0.2285" stop-color="#00873F"/>
<stop offset="0.7433" stop-color="#40A737"/>
<stop offset="1" stop-color="#5CB531"/>
</linearGradient>
<linearGradient id="paint1_linear_8945_845" x1="19.0822" y1="15.8822" x2="24.0148" y2="15.8822" gradientUnits="userSpaceOnUse">
<stop stop-color="#007940"/>
<stop offset="0.2285" stop-color="#00873F"/>
<stop offset="0.7433" stop-color="#40A737"/>
<stop offset="1" stop-color="#5CB531"/>
</linearGradient>
<linearGradient id="paint2_linear_8945_845" x1="19.082" y1="15.0458" x2="24.0144" y2="15.0458" gradientUnits="userSpaceOnUse">
<stop stop-color="#007940"/>
<stop offset="0.2285" stop-color="#00873F"/>
<stop offset="0.7433" stop-color="#40A737"/>
<stop offset="1" stop-color="#5CB531"/>
</linearGradient>
<linearGradient id="paint3_linear_8945_845" x1="8.04022" y1="15.8822" x2="13.0488" y2="15.8822" gradientUnits="userSpaceOnUse">
<stop stop-color="#1F286F"/>
<stop offset="0.4751" stop-color="#004E94"/>
<stop offset="0.8261" stop-color="#0066B1"/>
<stop offset="1" stop-color="#006FBC"/>
</linearGradient>
<linearGradient id="paint4_linear_8945_845" x1="13.535" y1="15.8822" x2="18.3993" y2="15.8822" gradientUnits="userSpaceOnUse">
<stop stop-color="#6C2C2F"/>
<stop offset="0.1735" stop-color="#882730"/>
<stop offset="0.5731" stop-color="#BE1833"/>
<stop offset="0.8585" stop-color="#DC0436"/>
<stop offset="1" stop-color="#E60039"/>
</linearGradient>
<clipPath id="clip0_8945_845">
<rect width="18" height="13.8293" fill="white" transform="translate(7 9)"/>
</clipPath>
</defs>
</svg>
